X: 120014
Q: "Highland Schottische."
M: C
L: 1/8
K: G
|: G>A |\
vB2uB>uA B2(B<d) | B2B>A B2B>c |\
vd>ve (d<B) e2ud>uB | d>e (d<B) A2 ::\
(B<d) e>f g2f>e |[1 (d<B) G>B A2 :|[2 (d<B) B>A G2 |]


